X:021
U: ~ = !turn!
%%topmargin 3cm
T:Byrne's Hornpipe
B:Traditional Irish Fiddle Tunes. Randy Miller and Jack Perron.
Z:Transcribed by Ralph Palmer
R:Hornpipe
M:C|
L:1/8
K:D
AF | ((3FEF) ((3GFG) AFDA | dA ((3Bcd) ecAg | fdge fdec | ((3dcB) cd ecAG |
((3FEF) ((3GFG) AFDA | dA ((3Bcd) ecAg | fdge fdec | dfec d2 ::
cd | ecAc efge | afdf bgeg | afdf geaf | ((3gfe) gd ecAG |
((3FEF) ((3GFG) AFDA | dA ((3Bcd) ecAg | fdge fdec | dfec d2 :|]
